outputs/icons/navigation/hamburger_menu_thick_sharp.svg

<svg xmlns="http://www.w3.org/2000/svg" width="1200" height="1200" fill="none"><g clip-path="url(#a)"><path fill="#000" d="M100 1100h1000V900H100zm0-400h1000V500H100zm0-600v200h1000V100z"/></g><defs><clipPath id="a"><path fill="#fff" d="M0 0h1200v1200H0z"/></clipPath></defs></svg>

<svg width="1200" height="1200" viewBox="0 0 1200 1200" fill="none" xmlns="http://www.w3.org/2000/svg"><g clip-path="url(#clip0_662_1873)"><path d="M100 1100H1100V900H100V1100ZM100 700H1100V500H100V700ZM100 100V300H1100V100H100Z" fill="#1D1E23"/></g><defs><clipPath id="clip0_662_1873"><path width="24" fill="white" d="M0 0H1200V1200H0V0z"/></clipPath></defs></svg>
